X: 34029
T: Reel De Beloeil
R: reel
M: 4/4
K: Dmajor
AF|:D3D DFEG|F2DE F2DF|AdcB AGFE|DFAd BGEC|
D3D DFEG|F2DE F2DF|AdcB AGFE|1 D2A2 ABAF :|2 D2A2 ABAG||
|:FAdA FAdA|GBdB GBdB|Acec Acec|dfed cBAG|
FAdA FAdA|GBdB GBdB|Acec Acec|1 dfec d2AG :|2 dfec d2AF||

